svg/whatsapp.svg

<svg width="35" height="36" viewBox="0 0 35 36" fill="none" xmlns="http://www.w3.org/2000/svg">
<path d="M29.8867 5.11123C28.2748 3.48445 26.3553 2.19474 24.24 1.31723C22.1248 0.439731 19.856 -0.00800788 17.5659 0.000108398C7.96992 0.000108398 0.149422 7.81841 0.140633 17.4166C0.140633 20.4908 0.944877 23.4814 2.46327 26.1292L0 35.1583L9.23782 32.7368C11.7934 34.1276 14.6564 34.8565 17.5659 34.8573H17.5747C27.1729 34.8573 34.9912 27.039 35 17.432C35.0022 15.1424 34.5513 12.875 33.6734 10.7605C32.7954 8.64589 31.5077 6.72594 29.8845 5.11123H29.8867ZM17.5659 31.9084C14.9708 31.9093 12.4234 31.2109 10.1915 29.8868L9.66411 29.5704L4.18383 31.0075L5.64729 25.6612L5.30449 25.1097C3.85379 22.8031 3.08655 20.1326 3.09172 17.4078C3.09172 9.44009 9.5894 2.94021 17.5747 2.94021C19.4771 2.9368 21.3613 3.30998 23.1188 4.03823C24.8762 4.76648 26.4721 5.8354 27.8145 7.18337C29.1616 8.52608 30.2295 10.1222 30.9566 11.8797C31.6838 13.6372 32.0557 15.5212 32.0511 17.4232C32.0423 25.4195 25.5446 31.9084 17.5659 31.9084ZM25.5095 21.0665C25.0766 20.8489 22.9385 19.7964 22.5364 19.647C22.1365 19.5041 21.8442 19.4294 21.5586 19.8645C21.2663 20.2974 20.4313 21.284 20.1808 21.5675C19.9303 21.8597 19.671 21.8927 19.2359 21.6773C18.803 21.4576 17.3989 21.0005 15.7377 19.5129C14.4412 18.3593 13.5733 16.931 13.314 16.4981C13.0635 16.063 13.2898 15.8301 13.5073 15.6125C13.6985 15.4192 13.9402 15.1028 14.1578 14.8523C14.3775 14.6018 14.45 14.4172 14.5929 14.1271C14.7357 13.8327 14.6676 13.5822 14.5599 13.3646C14.45 13.1471 13.5821 11.0002 13.2151 10.1345C12.8635 9.27968 12.5053 9.39834 12.2373 9.38735C11.9867 9.37197 11.6945 9.37197 11.4022 9.37197C11.1815 9.37745 10.9644 9.4285 10.7643 9.5219C10.5643 9.6153 10.3857 9.74904 10.2398 9.91472C9.8399 10.3498 8.72143 11.4024 8.72143 13.5492C8.72143 15.696 10.2816 17.7594 10.5013 18.0517C10.7167 18.3439 13.5645 22.7365 17.9351 24.6262C18.9678 25.0767 19.7809 25.3426 20.4159 25.5447C21.4597 25.8787 22.4024 25.8282 23.1539 25.7205C23.9889 25.5931 25.727 24.6658 26.094 23.6484C26.4544 22.6288 26.4544 21.7586 26.3445 21.5763C26.2368 21.3917 25.9446 21.284 25.5095 21.0665Z" fill="#5C49C7"/>
</svg>

<svg width="35" height="36" fill="none" xmlns="http://www.w3.org/2000/svg"><path d="M29.89 5.11A17.26 17.26 0 0 0 17.57 0a17.46 17.46 0 0 0-15.1 26.13L0 35.16l9.24-2.42a17.46 17.46 0 0 0 24.44-21.98 17.36 17.36 0 0 0-3.8-5.65Zm-12.32 26.8c-2.6 0-5.15-.7-7.38-2.02l-.53-.32-5.48 1.44 1.47-5.35-.35-.55a14.5 14.5 0 1 1 25.65-13.23 14.5 14.5 0 0 1-13.4 20.03Zm7.94-10.84a74.94 74.94 0 0 0-2.97-1.42c-.4-.15-.7-.22-.98.21-.3.44-1.13 1.42-1.38 1.7-.25.3-.5.33-.94.12-.44-.22-1.84-.68-3.5-2.17a13.28 13.28 0 0 1-2.43-3.01c-.25-.44-.02-.67.2-.89.19-.2.43-.5.65-.76.22-.25.29-.43.43-.72.15-.3.08-.55-.03-.77-.11-.21-.98-2.36-1.34-3.23-.36-.85-.71-.73-.98-.74-.25-.02-.55-.02-.84-.02a1.6 1.6 0 0 0-1.16.54c-.4.44-1.52 1.5-1.52 3.64 0 2.15 1.56 4.2 1.78 4.5.22.3 3.06 4.69 7.44 6.58 1.03.45 1.84.71 2.48.91 1.04.34 1.98.29 2.73.18.84-.13 2.58-1.05 2.94-2.07.36-1.02.36-1.9.25-2.07-.1-.19-.4-.3-.83-.51Z" fill="#5C49C7"/></svg>
